X:122
T: Ach schoenster Schatz, mein Augentrost,
N: D0179
O: Europa, Mitteleuropa, Deutschland, Untermainfranken, Spessart
N: Inzipit = Variante zum Lied; Verzierung
R: Liebes - Lied, Liebeslust
M: 3/4
L: 1/16
K: G
 |  |  | D2 | D2EFG4B4 | A2A2G2
A2B2c2 | d3ed2B2c2d2 | B4z4z2
D2 | G2B2d4e2d2 | c2B2d6
e2 | B2A2B2d2c2B2 | A2G2A2
D2G2B2 | d2e2d4c2d2 | B4z4z2

